svgs/regular/grid-dividers.svg

<svg xmlns="http://www.w3.org/2000/svg" viewBox="0 0 512 512"><!--! Font Awesome Pro 6.6.0 by @fontawesome - https://fontawesome.com License - https://fontawesome.com/license (Commercial License) Copyright 2024 Fonticons, Inc. --><path d="M0 24C0 10.7 10.7 0 24 0L488 0c13.3 0 24 10.7 24 24s-10.7 24-24 24L24 48C10.7 48 0 37.3 0 24zM80 176l32 0 0-32-32 0 0 32zM32 128c0-17.7 14.3-32 32-32l64 0c17.7 0 32 14.3 32 32l0 64c0 17.7-14.3 32-32 32l-64 0c-17.7 0-32-14.3-32-32l0-64zM80 464l32 0 0-32-32 0 0 32zM32 416c0-17.7 14.3-32 32-32l64 0c17.7 0 32 14.3 32 32l0 64c0 17.7-14.3 32-32 32l-64 0c-17.7 0-32-14.3-32-32l0-64zM240 144l0 32 32 0 0-32-32 0zM224 96l64 0c17.7 0 32 14.3 32 32l0 64c0 17.7-14.3 32-32 32l-64 0c-17.7 0-32-14.3-32-32l0-64c0-17.7 14.3-32 32-32zm16 368l32 0 0-32-32 0 0 32zm-48-48c0-17.7 14.3-32 32-32l64 0c17.7 0 32 14.3 32 32l0 64c0 17.7-14.3 32-32 32l-64 0c-17.7 0-32-14.3-32-32l0-64zM400 144l0 32 32 0 0-32-32 0zM384 96l64 0c17.7 0 32 14.3 32 32l0 64c0 17.7-14.3 32-32 32l-64 0c-17.7 0-32-14.3-32-32l0-64c0-17.7 14.3-32 32-32zm16 368l32 0 0-32-32 0 0 32zm-48-48c0-17.7 14.3-32 32-32l64 0c17.7 0 32 14.3 32 32l0 64c0 17.7-14.3 32-32 32l-64 0c-17.7 0-32-14.3-32-32l0-64zM24 288l464 0c13.3 0 24 10.7 24 24s-10.7 24-24 24L24 336c-13.3 0-24-10.7-24-24s10.7-24 24-24z"/></svg>

<svg xmlns="http://www.w3.org/2000/svg" viewBox="0 0 512 512"><!--! Font Awesome Pro 6.4.0 by @fontawesome - https://fontawesome.com License - https://fontawesome.com/license (Commercial License) Copyright 2023 Fonticons, Inc. --><path d="M0 24C0 10.7 10.7 0 24 0H488c13.3 0 24 10.7 24 24s-10.7 24-24 24H24C10.7 48 0 37.3 0 24zM80 176h32V144H80v32zM32 128c0-17.7 14.3-32 32-32h64c17.7 0 32 14.3 32 32v64c0 17.7-14.3 32-32 32H64c-17.7 0-32-14.3-32-32V128zM80 464h32V432H80v32zM32 416c0-17.7 14.3-32 32-32h64c17.7 0 32 14.3 32 32v64c0 17.7-14.3 32-32 32H64c-17.7 0-32-14.3-32-32V416zM240 144v32h32V144H240zM224 96h64c17.7 0 32 14.3 32 32v64c0 17.7-14.3 32-32 32H224c-17.7 0-32-14.3-32-32V128c0-17.7 14.3-32 32-32zm16 368h32V432H240v32zm-48-48c0-17.7 14.3-32 32-32h64c17.7 0 32 14.3 32 32v64c0 17.7-14.3 32-32 32H224c-17.7 0-32-14.3-32-32V416zM400 144v32h32V144H400zM384 96h64c17.7 0 32 14.3 32 32v64c0 17.7-14.3 32-32 32H384c-17.7 0-32-14.3-32-32V128c0-17.7 14.3-32 32-32zm16 368h32V432H400v32zm-48-48c0-17.7 14.3-32 32-32h64c17.7 0 32 14.3 32 32v64c0 17.7-14.3 32-32 32H384c-17.7 0-32-14.3-32-32V416zM24 288H488c13.3 0 24 10.7 24 24s-10.7 24-24 24H24c-13.3 0-24-10.7-24-24s10.7-24 24-24z"/></svg>
